X:98
T: ES FLOGEN DREI SCHWAELBELEIN UEBER DEN RHEIN
N: Z0098
O: Europa, Mitteleuropa, Deutschland, Herzogtum Berg
R: Sagen - Lied, Romanze, Tod
M: 2/4
L: 1/8
K: F
FA | c2Gc | cBAG | F2AG | F3
A | GGGG | D2AA | GFEF | C2z
C | FEFA | c4 | A3F | AGFE | F2

@@@ Tune index: 9856
